contributed-vectors/geizhals.svg

<svg width="192" height="192" viewBox="0 0 192 192" fill="none" xmlns="http://www.w3.org/2000/svg">
<path fill-rule="evenodd" clip-rule="evenodd" d="M109 8C60.3989 8 21 47.3989 21 96V96C21 144.601 60.3989 184 109 184H150C155.523 184 160 179.523 160 174V18C160 12.4772 155.523 8 150 8H109Z" fill="#728DBE"/>
<path d="M129 45H96C73.9086 45 56 62.9086 56 85V104C56 126.091 73.9086 144 96 144H132C133.105 144 134 143.105 134 142V100.56C134 99.4554 133.105 98.56 132 98.56H97" stroke="white" stroke-width="25"/>
</svg>

<svg xmlns="http://www.w3.org/2000/svg" width="192" height="192" fill="none"><path fill="#728DBE" fill-rule="evenodd" d="M109 8C60.399 8 21 47.399 21 96s39.399 88 88 88h41c5.523 0 10-4.477 10-10V18c0-5.523-4.477-10-10-10h-41Z" clip-rule="evenodd"/><path stroke="#fff" stroke-width="25" d="M129 45H96c-22.091 0-40 17.909-40 40v19c0 22.091 17.909 40 40 40h36a2 2 0 0 0 2-2v-41.44a2 2 0 0 0-2-2H97"/></svg>
